icons/arrow-break-left.svg

<svg width="24" height="24" viewBox="0 0 24 24" fill="none" xmlns="http://www.w3.org/2000/svg">
<path fill-rule="evenodd" clip-rule="evenodd" d="M19.7001 12C19.7001 12.4142 19.3643 12.75 18.9501 12.75L5.05007 12.75C4.63586 12.75 4.30007 12.4142 4.30007 12C4.30007 11.5858 4.63586 11.25 5.05007 11.25L18.9501 11.25C19.3643 11.25 19.7001 11.5858 19.7001 12Z" fill="black"/>
<path fill-rule="evenodd" clip-rule="evenodd" d="M10.875 5.76439C11.1709 6.05431 11.1757 6.52916 10.8858 6.825L5.98045 11.8304C5.91662 11.8942 5.9001 11.9552 5.9001 12C5.9001 12.0449 5.91659 12.1059 5.98043 12.1697L10.8804 17.0697C11.1733 17.3626 11.1733 17.8375 10.8804 18.1304C10.5875 18.4233 10.1127 18.4233 9.81977 18.1304L4.91977 13.2304C4.22788 12.5385 4.22688 11.4657 4.91674 10.7728L9.81444 5.7751C10.1044 5.47927 10.5792 5.47447 10.875 5.76439Z" fill="black"/>
<path fill-rule="evenodd" clip-rule="evenodd" d="M18.9501 5.25C19.3643 5.25 19.7001 5.58579 19.7001 6L19.7001 18C19.7001 18.4142 19.3643 18.75 18.9501 18.75C18.5359 18.75 18.2001 18.4142 18.2001 18L18.2001 6C18.2001 5.58579 18.5359 5.25 18.9501 5.25Z" fill="black"/>
</svg>

<svg xmlns="http://www.w3.org/2000/svg" fill="none" viewBox="0 0 24 24">
  <path fill="#000" fill-rule="evenodd" d="M19.7 12a.75.75 0 0 1-.75.75H5.05a.75.75 0 0 1 0-1.5h13.9a.75.75 0 0 1 .75.75Z" clip-rule="evenodd"/>
  <path fill="#000" fill-rule="evenodd" d="M10.875 5.764c.296.29.3.765.01 1.061L5.98 11.83a.24.24 0 0 0-.08.17.24.24 0 0 0 .08.17l4.9 4.9a.75.75 0 0 1-1.06 1.06l-4.9-4.9a1.716 1.716 0 0 1-.003-2.457l4.897-4.998a.75.75 0 0 1 1.061-.01Zm8.075-.514a.75.75 0 0 1 .75.75v12a.75.75 0 0 1-1.5 0V6a.75.75 0 0 1 .75-.75Z" clip-rule="evenodd"/>
</svg>
